symbols/web/iron/materialsymbolssharp/iron_wght600grad200_24px.svg

<svg xmlns="http://www.w3.org/2000/svg" height="24" width="24"><path d="M1.275 18.65V15.2q0-1.875 1.325-3.2 1.325-1.325 3.225-1.325h8.5v-1.25H9.25V10H6.175V6.35H17.4v6.575h.8V5.35h4.525v3.075h-1.45V16H17.4v2.65ZM4.35 16h9.975v-2.25h-8.5q-.625 0-1.05.425-.425.425-.425 1.025Zm9.975 0v-2.25V16Z"/></svg>

<svg xmlns="http://www.w3.org/2000/svg" height="24" width="24"><path d="M1.275 18.65V15.2Q1.275 13.325 2.6 12Q3.925 10.675 5.825 10.675H14.325V9.425H9.25V10H6.175V6.35H17.4V12.925H18.2V5.35H22.725V8.425H21.275V16H17.4V18.65ZM4.35 16H14.325V13.75H5.825Q5.2 13.75 4.775 14.175Q4.35 14.6 4.35 15.2ZM14.325 16V15.2Q14.325 14.6 14.325 14.175Q14.325 13.75 14.325 13.75V16Z"/></svg>
